{
  "compressionlevel": -1,
  "height": 12,
  "infinite": false,
  "layers": [
    {
      "data": [
        0,0,0,0,0,0,0,0,0,0,0,0,0,0,0,0,0,0,0,1,
        0,0,0,0,0,0,0,0,0,0,0,0,0,0,0,0,0,0,0,1,
        0,0,0,0,0,0,0,0,0,0,0,0,0,0,0,0,0,0,0,1,
        0,0,0,0,0,0,0,0,0,0,0,0,0,0,0,0,0,0,0,1,
        0,0,0,0,0,0,0,0,0,0,0,0,0,0,0,0,0,0,0,1,
        0,0,0,0,0,0,0,0,0,0,0,0,0,0,0,0,0,0,0,1,
        0,0,0,0,0,0,0,0,0,0,0,0,0,0,0,0,0,0,0,1,
        0,0,0,0,0,0,0,0,0,0,0,0,0,0,0,0,0,0,0,1,
        0,0,0,0,0,0,0,0,0,0,1,1,1,1,1,0,0,0,0,1,
        0,0,0,0,0,0,0,0,0,0,0,0,0,0,0,0,0,0,0,1,
        0,0,0,0,0,0,0,0,0,0,0,0,0,0,0,0,0,0,0,1,
        1,1,1,1,1,1,1,1,1,1,1,1,1,1,1,1,1,1,1,1
      ],
      "height": 12,
      "id": 1,
      "name": "CollisionSolid",
      "opacity": 1,
      "type": "tilelayer",
      "visible": true,
      "width": 20,
      "x": 0,
      "y": 0
    },
    {
      "draworder": "topdown",
      "id": 2,
      "name": "Spawns",
      "objects": [
        {"id": 1, "name": "from_room_01", "point": true, "type": "PlayerSpawn", "x": 48, "y": 336},
        {"id": 2, "name": "enemy_flying", "point": true, "type": "EnemySpawn", "x": 336, "y": 240,
          "properties": [{"name": "enemyType", "type": "string", "value": "FlyingEnemy"}]}
      ],
      "opacity": 1,
      "type": "objectgroup",
      "visible": true
    },
    {
      "draworder": "topdown",
      "id": 3,
      "name": "Transitions",
      "objects": [
        {"height": 64, "id": 3, "name": "to_room_01", "type": "RoomExit", "width": 32, "x": 0, "y": 288,
          "properties": [
            {"name": "targetRoom", "type": "string", "value": "room_01.tmj"},
            {"name": "targetSpawn", "type": "string", "value": "from_room_02"}
          ]}
      ],
      "opacity": 1,
      "type": "objectgroup",
      "visible": true
    },
    {
      "draworder": "topdown",
      "id": 4,
      "name": "Checkpoints",
      "objects": [
        {"id": 4, "name": "room_02_mid", "point": true, "type": "Checkpoint", "x": 432, "y": 336}
      ],
      "opacity": 1,
      "type": "objectgroup",
      "visible": true
    }
  ],
  "nextlayerid": 5,
  "nextobjectid": 5,
  "orientation": "orthogonal",
  "properties": [{"name": "roomId", "type": "string", "value": "room_02"}],
  "renderorder": "right-down",
  "tiledversion": "1.12.2",
  "tileheight": 32,
  "tilesets": [{"firstgid": 1, "source": "../tilesets/gameplay.tsj"}],
  "tilewidth": 32,
  "type": "map",
  "version": "1.10",
  "width": 20
}
